ummisco.gama.ui.shared/svg/markers/marker.info.dark.svg

<svg xmlns="http://www.w3.org/2000/svg" width="13" height="13" viewBox="-872.5 -3690.5 13 13"><g fill="none"><circle cx="-866" cy="-3684" r="6" fill="#5c76a2"/><path fill="#fff" d="M-866-3690c-3.312 0-6 2.688-6 6s2.688 6 6 6 6-2.688 6-6-2.688-6-6-6Zm.6 9h-1.2v-3.6h1.2v3.6Zm0-4.8h-1.2v-1.2h1.2v1.2Z"/></g></svg>

<?xml version="1.0" encoding="UTF-8" standalone="no"?>
<!DOCTYPE svg PUBLIC "-//W3C//DTD SVG 1.1//EN" "http://www.w3.org/Graphics/SVG/1.1/DTD/svg11.dtd">
<svg xmlns:xl="http://www.w3.org/1999/xlink" xmlns:dc="http://purl.org/dc/elements/1.1/" version="1.1" xmlns="http://www.w3.org/2000/svg" viewBox="-872 -3690 12 12" width="12" height="12">
  <defs/>
  <g id="ICONES" stroke="none" fill="none" stroke-opacity="1" stroke-dasharray="none" fill-opacity="1">
    <title>ICONES</title>
    <g id="ICONES_Calque_1">
      <title>Calque 1</title>
      <g id="Group_3344">
        <title>markers/marker.info.dark</title>
        <g id="Graphic_3216">
          <circle cx="-866" cy="-3684" r="6.00000958741114" fill="#5c76a2"/>
        </g>
        <g id="Graphic_3215">
          <path d="M -866 -3690 C -869.312 -3690 -872 -3687.312 -872 -3684 C -872 -3680.688 -869.312 -3678 -866 -3678 C -862.688 -3678 -860 -3680.688 -860 -3684 C -860 -3687.312 -862.688 -3690 -866 -3690 Z M -865.4 -3681 L -866.6 -3681 L -866.6 -3684.6 L -865.4 -3684.6 L -865.4 -3681 Z M -865.4 -3685.8 L -866.6 -3685.8 L -866.6 -3687 L -865.4 -3687 L -865.4 -3685.8 Z" fill="white"/>
        </g>
      </g>
    </g>
  </g>
</svg>
